X:1
T:The Bride's Reel [1]
M:2/4
L:1/8
R:Reel
C:J. Scott Skinner
B:Moffat - Dance Music of the North (1908, No. 7)
Z:AK/Fiddler's Companion
K:D
{ABc}[Dd].A/.G/ .F/.D/.A,/.D/|.B,/.D/.A,/.B,/ .C/.E/.A/.c/|{c}d.A/.F/ .G/.B/.e/.d/|.c/.A/.a/.g/ .f/.d/.d/.A/|
{c}[Dd].A/.G/ .F/.D/.A,/.D/|.B,/.D/.A,/.B,/ .C/.E/.A/.c/|.d/.c/.d/.A/ .B/.G/.d/.B/|.A/.F/.G/.E/ .F/.D/.D/||
.g/|.f/.g/.a/.f/ .d/.A/.F/.D/|.G/.B/.e/.d/ .c/.A/.a/.g/|.f/.g/.a/.f/ .d/.A/.F/.D/|.G/.B/.A/.c/ .d/.D/.D/.g/|
.f/.g/.a/.f/ .d/.A/.F/.D/|.G/.B/.e/.d/ .c/.A/.B/.c/|.d/.f/.e/.g/ .f/.a/.g/.b/|.a/.f/.g/.e/ .f/.d/[F/d/] z/||

